packages/synapse-interface/assets/icons/pls.svg

<svg fill="none" height="48" viewBox="0 0 48 48" width="48" xmlns="http://www.w3.org/2000/svg" xmlns:xlink="http://www.w3.org/1999/xlink"><linearGradient id="a" gradientUnits="userSpaceOnUse" x1="20.677" x2="20.677" y1="43.691" y2="3.702"><stop offset="0" stop-color="#4fce0d"/><stop offset="1" stop-color="#4fea0d"/></linearGradient><linearGradient id="b"><stop offset="0" stop-color="#4fce0d"/><stop offset="1" stop-color="#4fce0d"/></linearGradient><linearGradient id="c" gradientUnits="userSpaceOnUse" x1="10.949" x2="10.949" xlink:href="#b" y1="43.692" y2="3.702"/><linearGradient id="d" gradientUnits="userSpaceOnUse" x1="275.712" x2="275.712" xlink:href="#b" y1="335.742" y2="-26.965"/><linearGradient id="e" gradientUnits="userSpaceOnUse" x1="794.839" x2="794.839" xlink:href="#b" y1="325.992" y2="-36.715"/><linearGradient id="f" gradientUnits="userSpaceOnUse" x1="155.511" x2="155.511" xlink:href="#b" y1="1198.46" y2="-147.191"/><linearGradient id="g" gradientUnits="userSpaceOnUse" x1="180.152" x2="180.152" xlink:href="#b" y1="743.074" y2="-103.108"/><linearGradient id="h" gradientUnits="userSpaceOnUse" x1="62.514" x2="62.514" xlink:href="#b" y1="748.384" y2="-97.801"/><linearGradient id="i" gradientUnits="userSpaceOnUse" x1="184.529" x2="184.529" xlink:href="#b" y1="1192.26" y2="-146.195"/><linearGradient id="j" gradientUnits="userSpaceOnUse" x1="282.766" x2="282.766" xlink:href="#b" y1="1941.54" y2="-274.297"/><linearGradient id="k" gradientUnits="userSpaceOnUse" x1="540.889" x2="540.889" xlink:href="#b" y1="335.742" y2="-26.965"/><linearGradient id="l" gradientUnits="userSpaceOnUse" x1="155.511" x2="155.511" xlink:href="#b" y1="790.893" y2="-96.476"/><linearGradient id="m" gradientUnits="userSpaceOnUse" x1="1314.42" x2="1314.42" xlink:href="#b" y1="1754.2" y2="-250.884"/><linearGradient id="n" gradientUnits="userSpaceOnUse" x1="52.75" x2="52.75" xlink:href="#b" y1="1339.08" y2="-173.734"/><linearGradient id="o" gradientUnits="userSpaceOnUse" x1="249.588" x2="249.588" xlink:href="#b" y1="1339.08" y2="-173.734"/><linearGradient id="p" gradientUnits="userSpaceOnUse" x1="930.966" x2="930.966" xlink:href="#b" y1="1718.57" y2="-230.937"/><linearGradient id="q" gradientUnits="userSpaceOnUse" x1="460.343" x2="460.343" xlink:href="#b" y1="743.074" y2="-103.108"/><linearGradient id="r" gradientUnits="userSpaceOnUse" x1="578.185" x2="578.185" xlink:href="#b" y1="748.384" y2="-97.801"/><rect fill="#111" height="48" rx="24" width="48"/><path d="m19.6098 33.2668v5.733h2.1347v-7.8672l-2.1276 2.1248z" fill="url(#a)"/><path d="m9.88126 21.4062v8.7557l2.08774 2.0873.047.0471v-13.0244l-2.12769 2.1272z" fill="url(#c)"/><path d="m18.2508 23.2209h2.1817l2.0877-2.0849.047-.0471h-6.4511l2.1276 2.1249z" fill="url(#d)"/><path d="m19.6686 11.3389-2.0877 2.0872-.047.0447h12.94l-2.1254-2.1249-.0094-.007z" fill="url(#e)"/><path d="m25.1088 31.0905h-2.2076v7.9096h2.2076z" fill="url(#f)"/><path d="m20.1645 9h-3.0187l-1.949 1.9486-.007.0071v3.018l4.9277-4.92669z" fill="url(#g)"/><path d="m14.856 14.3076h-3.0187l-1.94899 1.9462-.00705.0095v3.0181l4.92774-4.9268z" fill="url(#h)"/><path d="m26.2656 31.1326v7.8672h2.1323v-5.733l-2.0876-2.0873z" fill="url(#i)"/><path d="m35.9916 19.2719v13.0244l2.1277-2.1249.007-.0095v-8.7557l-2.0876-2.0873z" fill="url(#j)"/><path d="m27.5679 23.2138.007.0071h2.1817l2.0878-2.0849.0469-.0471h-6.4511z" fill="url(#k)"/><path d="m25.1088 21.0889h-2.2076v5.2159h2.2076z" fill="url(#l)"/><path d="m31.7644 14.7635h-15.5214l-3.0633 3.0605-.0071.0094v6.5815l2.0877 2.0873.047.0469v-7.832l1.8197-1.8193h13.7535l1.8196 1.8193v7.832l2.1277-2.1248.007-.0094v-6.5815l-3.061-3.0628z" fill="url(#m)"/><path d="m13.1726 28.8268v4.6258l2.0877 2.0873.047.047v-8.8921l-2.1276 2.1249z" fill="url(#n)"/><path d="m32.7002 26.6948v8.8921l2.1277-2.1248.007-.0095v-4.6258l-2.0877-2.0873z" fill="url(#o)"/><path d="m27.2459 27.3461h-6.4842l-4.3634 4.3626-.0071.0071v4.9549l2.0878 2.0873.0469.047v-6.2054l3.1198-3.1192h4.7162l3.1198 3.1192v6.2054l2.1276-2.1249.0071-.0094v-4.9549l-4.3611-4.3627z" fill="url(#p)"/><path d="m32.8176 13.9737v-3.018l-1.9466-1.94865-.0071-.00705h-3.0187l4.9254 4.9267z" fill="url(#q)"/><path d="m36.1795 14.3147-.0094-.0071h-3.0187l4.9278 4.9267.047.0471v-3.0181z" fill="url(#r)"/></svg>

<svg width="48" height="48" viewBox="0 0 48 48" fill="none" xmlns="http://www.w3.org/2000/svg">
<rect width="48" height="48" rx="24" fill="#111111"/>
<path d="M19.6098 33.2668V38.9998H21.7445V31.1326L19.6169 33.2574L19.6098 33.2668Z" fill="url(#paint0_linear_1275_22752)"/>
<path d="M9.88126 21.4062V30.1619L11.969 32.2492L12.016 32.2963V19.2719L9.88831 21.3991L9.88126 21.4062Z" fill="url(#paint1_linear_1275_22752)"/>
<path d="M18.2508 23.2209H20.4325L22.5202 21.136L22.5672 21.0889H16.1161L18.2437 23.2138L18.2508 23.2209Z" fill="url(#paint2_linear_1275_22752)"/>
<path d="M19.6686 11.3389L17.5809 13.4261L17.5339 13.4708H30.4739L28.3485 11.3459L28.3391 11.3389H19.6686Z" fill="url(#paint3_linear_1275_22752)"/>
<path d="M25.1088 31.0905H22.9012V39.0001H25.1088V31.0905Z" fill="url(#paint4_linear_1275_22752)"/>
<path d="M20.1645 9H17.1458L15.1968 10.9486L15.1898 10.9557V13.9737L20.1175 9.04701L20.1645 9Z" fill="url(#paint5_linear_1275_22752)"/>
<path d="M14.856 14.3076H11.8373L9.88831 16.2538L9.88126 16.2633V19.2814L14.809 14.3546L14.856 14.3076Z" fill="url(#paint6_linear_1275_22752)"/>
<path d="M26.2656 31.1326V38.9998H28.3979V33.2668L26.3103 31.1795L26.2656 31.1326Z" fill="url(#paint7_linear_1275_22752)"/>
<path d="M35.9916 19.2719V32.2963L38.1193 30.1714L38.1263 30.1619V21.4062L36.0387 19.3189L35.9916 19.2719Z" fill="url(#paint8_linear_1275_22752)"/>
<path d="M27.5679 23.2138L27.5749 23.2209H29.7566L31.8444 21.136L31.8913 21.0889H25.4402L27.5679 23.2138Z" fill="url(#paint9_linear_1275_22752)"/>
<path d="M25.1088 21.0889H22.9012V26.3048H25.1088V21.0889Z" fill="url(#paint10_linear_1275_22752)"/>
<path d="M31.7644 14.7635H16.243L13.1797 17.824L13.1726 17.8334V24.4149L15.2603 26.5022L15.3073 26.5491V18.7171L17.127 16.8978H30.8805L32.7001 18.7171V26.5491L34.8278 24.4243L34.8348 24.4149V17.8334L31.7738 14.7706L31.7644 14.7635Z" fill="url(#paint11_linear_1275_22752)"/>
<path d="M13.1726 28.8268V33.4526L15.2603 35.5399L15.3073 35.5869V26.6948L13.1797 28.8197L13.1726 28.8268Z" fill="url(#paint12_linear_1275_22752)"/>
<path d="M32.7002 26.6948V35.5869L34.8279 33.4621L34.8349 33.4526V28.8268L32.7472 26.7395L32.7002 26.6948Z" fill="url(#paint13_linear_1275_22752)"/>
<path d="M27.2459 27.3461H20.7617L16.3983 31.7087L16.3912 31.7158V36.6707L18.479 38.758L18.5259 38.805V32.5996L21.6457 29.4804H26.3619L29.4817 32.5996V38.805L31.6093 36.6801L31.6164 36.6707V31.7158L27.2553 27.3531L27.2459 27.3461Z" fill="url(#paint14_linear_1275_22752)"/>
<path d="M32.8176 13.9737V10.9557L30.871 9.00705L30.8639 9H27.8452L32.7706 13.9267L32.8176 13.9737Z" fill="url(#paint15_linear_1275_22752)"/>
<path d="M36.1795 14.3147L36.1701 14.3076H33.1514L38.0792 19.2343L38.1262 19.2814V16.2633L36.1795 14.3147Z" fill="url(#paint16_linear_1275_22752)"/>
<defs>
<linearGradient id="paint0_linear_1275_22752" x1="20.6772" y1="43.6914" x2="20.6772" y2="3.70172" gradientUnits="userSpaceOnUse">
<stop stop-color="#4FCE0D"/>
<stop offset="1" stop-color="#4FEA0D"/>
</linearGradient>
<linearGradient id="paint1_linear_1275_22752" x1="10.9486" y1="43.6917" x2="10.9486" y2="3.70191" gradientUnits="userSpaceOnUse">
<stop stop-color="#4FCE0D"/>
<stop offset="1" stop-color="#4FCE0D"/>
</linearGradient>
<linearGradient id="paint2_linear_1275_22752" x1="275.712" y1="335.742" x2="275.712" y2="-26.965" gradientUnits="userSpaceOnUse">
<stop stop-color="#4FCE0D"/>
<stop offset="1" stop-color="#4FCE0D"/>
</linearGradient>
<linearGradient id="paint3_linear_1275_22752" x1="794.839" y1="325.992" x2="794.839" y2="-36.7151" gradientUnits="userSpaceOnUse">
<stop stop-color="#4FCE0D"/>
<stop offset="1" stop-color="#4FCE0D"/>
</linearGradient>
<linearGradient id="paint4_linear_1275_22752" x1="155.511" y1="1198.46" x2="155.511" y2="-147.191" gradientUnits="userSpaceOnUse">
<stop stop-color="#4FCE0D"/>
<stop offset="1" stop-color="#4FCE0D"/>
</linearGradient>
<linearGradient id="paint5_linear_1275_22752" x1="180.152" y1="743.074" x2="180.152" y2="-103.108" gradientUnits="userSpaceOnUse">
<stop stop-color="#4FCE0D"/>
<stop offset="1" stop-color="#4FCE0D"/>
</linearGradient>
<linearGradient id="paint6_linear_1275_22752" x1="62.514" y1="748.384" x2="62.514" y2="-97.8009" gradientUnits="userSpaceOnUse">
<stop stop-color="#4FCE0D"/>
<stop offset="1" stop-color="#4FCE0D"/>
</linearGradient>
<linearGradient id="paint7_linear_1275_22752" x1="184.529" y1="1192.26" x2="184.529" y2="-146.195" gradientUnits="userSpaceOnUse">
<stop stop-color="#4FCE0D"/>
<stop offset="1" stop-color="#4FCE0D"/>
</linearGradient>
<linearGradient id="paint8_linear_1275_22752" x1="282.766" y1="1941.54" x2="282.766" y2="-274.297" gradientUnits="userSpaceOnUse">
<stop stop-color="#4FCE0D"/>
<stop offset="1" stop-color="#4FCE0D"/>
</linearGradient>
<linearGradient id="paint9_linear_1275_22752" x1="540.889" y1="335.742" x2="540.889" y2="-26.965" gradientUnits="userSpaceOnUse">
<stop stop-color="#4FCE0D"/>
<stop offset="1" stop-color="#4FCE0D"/>
</linearGradient>
<linearGradient id="paint10_linear_1275_22752" x1="155.511" y1="790.893" x2="155.511" y2="-96.4762" gradientUnits="userSpaceOnUse">
<stop stop-color="#4FCE0D"/>
<stop offset="1" stop-color="#4FCE0D"/>
</linearGradient>
<linearGradient id="paint11_linear_1275_22752" x1="1314.42" y1="1754.2" x2="1314.42" y2="-250.884" gradientUnits="userSpaceOnUse">
<stop stop-color="#4FCE0D"/>
<stop offset="1" stop-color="#4FCE0D"/>
</linearGradient>
<linearGradient id="paint12_linear_1275_22752" x1="52.7503" y1="1339.08" x2="52.7503" y2="-173.734" gradientUnits="userSpaceOnUse">
<stop stop-color="#4FCE0D"/>
<stop offset="1" stop-color="#4FCE0D"/>
</linearGradient>
<linearGradient id="paint13_linear_1275_22752" x1="249.588" y1="1339.08" x2="249.588" y2="-173.734" gradientUnits="userSpaceOnUse">
<stop stop-color="#4FCE0D"/>
<stop offset="1" stop-color="#4FCE0D"/>
</linearGradient>
<linearGradient id="paint14_linear_1275_22752" x1="930.966" y1="1718.57" x2="930.966" y2="-230.937" gradientUnits="userSpaceOnUse">
<stop stop-color="#4FCE0D"/>
<stop offset="1" stop-color="#4FCE0D"/>
</linearGradient>
<linearGradient id="paint15_linear_1275_22752" x1="460.343" y1="743.074" x2="460.343" y2="-103.108" gradientUnits="userSpaceOnUse">
<stop stop-color="#4FCE0D"/>
<stop offset="1" stop-color="#4FCE0D"/>
</linearGradient>
<linearGradient id="paint16_linear_1275_22752" x1="578.185" y1="748.384" x2="578.185" y2="-97.8009" gradientUnits="userSpaceOnUse">
<stop stop-color="#4FCE0D"/>
<stop offset="1" stop-color="#4FCE0D"/>
</linearGradient>
</defs>
</svg>
